X: 28602
T: Mushroom Treatment, The
R: reel
M: 4/4
K: Adorian
|:eA A2 EAce|dBGB AE E2|eA A2 EAce|aged (3Bcd ga|
eA A2 EAce|dBGB AE E2|DEGA B2ge|dBGA BAA2:|
|:eaag aged|Bdde BA A2|eaab aged|edBA Bd d2|
eaag aged|Bdde BA A2|efge a2ge|dBGA BAA2:|

